X:1
T:MENUETT No. 1 mit TRIO
T:MENUETT in C MAJOR
T:für das Pianoforte
T:W. A. Mozart
T:Köch. Verz. No. 1f
C:W. A. Mozart
Z:Köch. Verz. No. 1
%%score { 1 | ( 2 3 ) }
L:1/8
Q:1/4=150
M:3/4
K:C
V:1 treble nm="Piano" snm="Pno."
V:2 bass 
V:3 bass 
V:1
 cG | E2 E2 DE | E2 F2 dB | F2 F2 ED | D2 E2 e/d/c/B/ | A2 a2 d/c/B/A/ | G2 g2 d/B/A/G/ | %7
 (e2 d2) ^F2 |[M:2/4] (A2 G2) ::[M:3/4] ge | ^c2 c2 de | e2 f2 fd | B2 B2 cd | d2 e2 a/g/f/e/ | %14
 d2 d'2 g/f/e/d/ | c2 c'2 g/e/d/c/ | a2 g2 B2 | (d2 c2) :| %18
V:2
 C,E, | G,2 G,2 G,2 | G,4 G,2 | G,2 G,2 G,2 | [C,G,]4 C/B,/A,/G,/ | ^F,4 B,/A,/G,/F,/ | E,4 B,2 | %7
 C2 D2 D,2 |[M:2/4] G,4 ::[M:3/4] E,G, | A,2 A,2 A,2 | A,4 A,2 | G,2 G,2 G,2 | G,4 F/E/D/C/ | %14
 B,4 E/D/C/B,/ | A,4 E,2 | F,2 G,2 G,,2 | C,4 :| %18
V:3
 x2 | C,2 C,2 B,,C, | C,2 D,2 B,,D, | B,,2 B,,2 B,,2 | x6 | x6 | x6 | x6 |[M:2/4] x4 ::[M:3/4] x2 | %10
 A,2 G,2 F,E, | (E,2 D,2) D,F, | G,2 F,2 E,D, | (D,2 C,2) x2 | x6 | x6 | x6 | x4 :| %18

